X: 99
T: In coena Domini. Lectio tertia
C: Gaspar van Weerbeke
%%abc-version 2.0
%%abcx-abcm2ps-target-version 5.9.1 (29 Sep 2008)
%%abc-creator hum2abc beta
%%abcx-conversion-date 2022/03/06 13:05:54
%%abc-copyright Copyright 2018, Pavanello, Agnese
%%abc-edited-by Zybina, Karina
%%humdrum-veritas 1221067257
%%humdrum-veritas-data 3777243630
%%linebreak <none>
%%barnumbers 0
L: 1/4
M: 2/2
N: Derived from Gas0501c-In_coena_Domini_Lectio_tertia.krn
%%staves [1 2 3 4]
V: 1 clef=treble
V: 2 clef=treble-8
V: 3 clef=treble-8
V: 4 clef=bass
K: C
[V:1] F4- | 
[V:2] c4 | 
[V:3] F4 | 
[V:4] F,4- | 
[V:1] F4 | 
[V:2] d2c2 | 
[V:3] A4 | 
[V:4] F,4 | 
[V:1] A4 | 
[V:2] f4 | 
[V:3] c4 | 
[V:4] F,4 | 
[V:1] _B4 | 
[V:2] d4 | 
[V:3] z2d2- | 
[V:4] G,4 | 
[V:1] A4 | 
[V:2] f4 | 
[V:3] d2c2 | 
[V:4] D,2F,2 | 
[V:1] G4 | 
[V:2] e4 | 
[V:3] c4 | 
[V:4] C,4 | 
[V:1] F4- | 
[V:2] f3c | 
[V:3] A4- | 
[V:4] F,4- | 
[V:1] F4 ||  
[V:2] c4 ||  
[V:3] A4 ||  
[V:4] F,4 ||  
[V:1] F4 | 
[V:2] d4 | 
[V:3] A4 | 
[V:4] D,4 | 
[V:1] G2A2- | 
[V:2] e2A2- | 
[V:3] c2c2- | 
[V:4] C,2F,2- | 
[V:1] A2G2 | 
[V:2] A2c2 | 
[V:3] c2c2 | 
[V:4] F,2E,2 | 
[V:1] E4 | 
[V:2] G4 | 
[V:3] c4 | 
[V:4] C,4 | 
[V:1] z2A2 | 
[V:2] z2d2 | 
[V:3] z2A2 | 
[V:4] z2D,2 | 
[V:1] A3A | 
[V:2] c3c | 
[V:3] A3A | 
[V:4] F,3F, | 
[V:1] A2G2 | 
[V:2] f2e2 | 
[V:3] c2c2 | 
[V:4] F,2C,2 | 
[V:1] _B4 | 
[V:2] f4- | 
[V:3] d4- | 
[V:4] _B,,4 | 
[V:1] A4 | 
[V:2] f4 | 
[V:3] d4 | 
[V:4] D,4 | 
[V:1] z4 | 
[V:2] z4 | 
[V:3] z4 | 
[V:4] z4 | 
[V:1] A4 | 
[V:2] f4 | 
[V:3] c4 | 
[V:4] F,4 | 
[V:1] A4 | 
[V:2] f4 | 
[V:3] F4 | 
[V:4] D,4 | 
[V:1] G2F2 | 
[V:2] c2d2 | 
[V:3] G2A2 | 
[V:4] E,2D,2 | 
[V:1] G4 | 
[V:2] d4 | 
[V:3] _B4 | 
[V:4] G,4 | 
[V:1] A4- | 
[V:2] d4 | 
[V:3] A4- | 
[V:4] D,3C, | 
[V:1] A4 | 
[V:2] c4 | 
[V:3] A4 | 
[V:4] A,,4 | 
[V:1] z4 | 
[V:2] z4 | 
[V:3] z4 | 
[V:4] z4 | 
[V:1] F4 | 
[V:2] A4 | 
[V:3] A4 | 
[V:4] D,4 | 
[V:1] D4 | 
[V:2] A3_B | 
[V:3] F4 | 
[V:4] D,4 | 
[V:1] E4 | 
[V:2] c4 | 
[V:3] G4 | 
[V:4] C,4 | 
[V:1] F3E | 
[V:2] A3_B | 
[V:3] F3G | 
[V:4] C3_B, | 
[V:1] F2G2 | 
[V:2] cf2e | 
[V:3] A2_B2 | 
[V:4] A,2G,2 | 
[V:1] A4 | 
[V:2] f4 | 
[V:3] c4 | 
[V:4] F,4 | 
[V:1] z4 | 
[V:2] z4 | 
[V:3] z4 | 
[V:4] z4 | 
[V:1] A2A2 | 
[V:2] f2f2 | 
[V:3] c2c2 | 
[V:4] F,2F,2 | 
[V:1] G2A2 | 
[V:2] e2f2 | 
[V:3] c2c2 | 
[V:4] C,2F,2 | 
[V:1] c4 | 
[V:2] e3f | 
[V:3] c4 | 
[V:4] A,4 | 
[V:1] _B3A/G/ | 
[V:2] g4 | 
[V:3] d3c/_B/ | 
[V:4] G,4 | 
[V:1] F2G2- | 
[V:2] c4 | 
[V:3] A2G2 | 
[V:4] z2E,2 | 
[V:1] G2^F2 | 
[V:2] d4 | 
[V:3] A4 | 
[V:4] D,4 | 
[V:1] G4 | 
[V:2] d4 | 
[V:3] G4 | 
[V:4] G,4 | 
[V:1] _B4 | 
[V:2] g4 | 
[V:3] d3_B | 
[V:4] G,4 | 
[V:1] G2A2- | 
[V:2] e2c2- | 
[V:3] c4 | 
[V:4] C,2F,2 | 
[V:1] A2F2- | 
[V:2] c2B2 | 
[V:3] F4 | 
[V:4] D,4 | 
[V:1] F2E2 | 
[V:2] c4- | 
[V:3] G4 | 
[V:4] C,4 | 
[V:1] F4 ||  
[V:2] c4 ||  
[V:3] F4 ||  
[V:4] F,4 ||  
[V:1] E4 | 
[V:2] c4 | 
[V:3] G4 | 
[V:4] C,4 | 
[V:1] G4- | 
[V:2] e4 | 
[V:3] c4 | 
[V:4] C,4 | 
[V:1] G4 | 
[V:2] d4- | 
[V:3] d3c/_B/ | 
[V:4] G,4 | 
[V:1] A2_B2 | 
[V:2] d4 | 
[V:3] A2G2 | 
[V:4] F,2G,2 | 
[V:1] G4 [I:setbarnb 51]| 
[V:2] e4 | 
[V:3] c4 | 
[V:4] C,4 | 
[V:1] F4 ||  
[V:2] c4 ||  
[V:3] A4 ||  
[V:4] F,4 ||  
[V:1] A4 | 
[V:2] f4 | 
[V:3] F4 | 
[V:4] D,4 | 
[V:1] F2G2- | 
[V:2] d2e2- | 
[V:3] F2c2- | 
[V:4] D,2C,2- | 
[V:1] G2G2 | 
[V:2] e2e2 | 
[V:3] c2B2 | 
[V:4] C,2E,2 | 
[V:1] A4 | 
[V:2] f4 | 
[V:3] d4 | 
[V:4] D,4 | 
[V:1] G2_B2- | 
[V:2] d2g2- | 
[V:3] d2d2- | 
[V:4] G,2G,2- | 
[V:1] B2_B2 | 
[V:2] g2g2 | 
[V:3] d2d2 | 
[V:4] G,2G,2 | 
[V:1] _B4 | 
[V:2] f4- | 
[V:3] d4 | 
[V:4] _B,4 | 
[V:1] A4 | 
[V:2] f4 | 
[V:3] c4 | 
[V:4] F,4 | 
[V:1] z4 | 
[V:2] z4 | 
[V:3] z4 | 
[V:4] z4 | 
[V:1] D2D2 | 
[V:2] z4 | 
[V:3] _B2_B2 | 
[V:4] G,2G,2 | 
[V:1] E2F2 | 
[V:2] G2_B2 | 
[V:3] c2F2 | 
[V:4] C,2D,2 | 
[V:1] E2F2 | 
[V:2] c2c2 | 
[V:3] G2A2 | 
[V:4] C,2F,2 | 
[V:1] G4 | 
[V:2] c4 | 
[V:3] G4 | 
[V:4] C,2C,2 | 
[V:1] A2_B2- | 
[V:2] f2d2 | 
[V:3] F2G2 | 
[V:4] z4 | 
[V:1] BAA2- | 
[V:2] c2f2 | 
[V:3] A4 | 
[V:4] F,4 | 
[V:1] A2G2 | 
[V:2] d4 | 
[V:3] _B4 | 
[V:4] G,4 | 
[V:1] A4 | 
[V:2] d4 | 
[V:3] A4 | 
[V:4] D,4 | 
[V:1] z4 | 
[V:2] z4 | 
[V:3] z4 | 
[V:4] z4 | 
[V:1] A2A2 | 
[V:2] c2d2 | 
[V:3] F2D2 | 
[V:4] F,2F,2 | 
[V:1] c3_B | 
[V:2] f3f | 
[V:3] A3A | 
[V:4] F,3F, | 
[V:1] A2G2 | 
[V:2] f2d2 | 
[V:3] c2_B2 | 
[V:4] F,2G,2 | 
[V:1] A4 | 
[V:2] f4 | 
[V:3] d4 | 
[V:4] D,4 | 
[V:1] G4 | 
[V:2] g4 | 
[V:3] d4 | 
[V:4] G,4 | 
[V:1] z2A2- | 
[V:2] z2f2- | 
[V:3] z2A2- | 
[V:4] z2D,2- | 
[V:1] AGF2 | 
[V:2] fed2 | 
[V:3] AAA2 | 
[V:4] D,D,D,2 | 
[V:1] z2F2- | 
[V:2] z2f2- | 
[V:3] z2_B2- | 
[V:4] z2_B,,2- | 
[V:1] F2F2 | 
[V:2] f2f2 | 
[V:3] B2_B2 | 
[V:4] B,,2_B,,2 | 
[V:1] F2F2 | 
[V:2] f2f2 | 
[V:3] A2A2 | 
[V:4] D,2D,2 | 
[V:1] G3G | 
[V:2] _B3c | 
[V:3] G3G | 
[V:4] _E,2E,2 | 
[V:1] A4 | 
[V:2] d3c | 
[V:3] F4 | 
[V:4] D,3F, | 
[V:1] G2F2- | 
[V:2] c2_B2 | 
[V:3] E2F2 | 
[V:4] C,2D,2 | 
[V:1] F2E2 | 
[V:2] c4- | 
[V:3] G4 | 
[V:4] C,4 | 
[V:1] F4 ||  
[V:2] c4 ||  
[V:3] F4 ||  
[V:4] F,4 ||  
[V:1] A4 | 
[V:2] d4 | 
[V:3] F4 | 
[V:4] D,4 | 
[V:1] A4 | 
[V:2] c4 | 
[V:3] A4 | 
[V:4] F,4 | 
[V:1] G4 | 
[V:2] e4 | 
[V:3] c4 | 
[V:4] C,4 | 
[V:1] _B4 | 
[V:2] d4 | 
[V:3] d4 | 
[V:4] G,4 | 
[V:1] A4 | 
[V:2] f4 | 
[V:3] d4 | 
[V:4] D,4 | 
[V:1] G4 | 
[V:2] c4 | 
[V:3] G4 | 
[V:4] E,4 | 
[V:1] F4 | 
[V:2] d4 | 
[V:3] A4 | 
[V:4] D,4 | 
[V:1] z4 | 
[V:2] z4 | 
[V:3] z4 | 
[V:4] z4 | 
[V:1] D4 | 
[V:2] _B4 | 
[V:3] G4 | 
[V:4] G,4 | 
[V:1] E2F2 | 
[V:2] c2d2 | 
[V:3] G2A2 | 
[V:4] E,2D,2 | 
[V:1] G4 | 
[V:2] e4 | 
[V:3] c4 | 
[V:4] C,4 | 
[V:1] A4 | 
[V:2] f4 | 
[V:3] c4 | 
[V:4] F,4 | 
[V:1] _B4 | 
[V:2] d4 | 
[V:3] z2G2 | 
[V:4] G,4 | 
[V:1] A2G2 | 
[V:2] d>cc2 | 
[V:3] F2G2 | 
[V:4] D,2E,2 | 
[V:1] F4 | 
[V:2] d4 | 
[V:3] A4 | 
[V:4] D,4 | 
[V:1] G4 | 
[V:2] d4 | 
[V:3] G4 | 
[V:4] G,4 | 
[V:1] A3_B | 
[V:2] f4- | 
[V:3] c3_B | 
[V:4] F,4- | 
[V:1] c3_B/A/ | 
[V:2] f4 | 
[V:3] A2F2 | 
[V:4] F,4 | 
[V:1] G4 | 
[V:2] e4 | 
[V:3] c4 | 
[V:4] C,4 | 
[V:1] F4- | 
[V:2] c4- | 
[V:3] A4 | 
[V:4] F,4- | 
[V:1] F4 ||  
[V:2] c4 ||  
[V:3] c4 ||  
[V:4] F,4 ||  
[V:1] F4 | 
[V:2] d4 | 
[V:3] A4 | 
[V:4] D,4 | 
[V:1] G4 | 
[V:2] B4 | 
[V:3] G4 | 
[V:4] E,4 | 
[V:1] A4 | 
[V:2] A4 | 
[V:3] c4 | 
[V:4] F,4 | 
[V:1] A2A2 | 
[V:2] e2e2 | 
[V:3] c2c2 | 
[V:4] A,2A,2 | 
[V:1] A4 | 
[V:2] f4 | 
[V:3] d4 | 
[V:4] D,4 | 
[V:1] z4 | 
[V:2] z4 | 
[V:3] z4 | 
[V:4] z4 | 
[V:1] A4 | 
[V:2] f4 | 
[V:3] c4 | 
[V:4] F,4 | 
[V:1] _B4 | 
[V:2] d4 | 
[V:3] _B4 | 
[V:4] G,4 | 
[V:1] c4 | 
[V:2] f4 | 
[V:3] A4 | 
[V:4] F,4 | 
[V:1] _B2A2 | 
[V:2] _B2f2 | 
[V:3] G2A2 | 
[V:4] G,2F,2 | 
[V:1] G4 | 
[V:2] d4 | 
[V:3] _B4 | 
[V:4] G,4 | 
[V:1] A4- | 
[V:2] d4 | 
[V:3] A4- | 
[V:4] D,3C, | 
[V:1] A4 | 
[V:2] c4 | 
[V:3] A4 | 
[V:4] A,,4 | 
[V:1] F2F2- | 
[V:2] d2d2- | 
[V:3] A2A2- | 
[V:4] D,2D,2- | 
[V:1] FFF2 | 
[V:2] ddd2 | 
[V:3] AA_B2 | 
[V:4] D,C,_B,,2 | 
[V:1] z2D2 | 
[V:2] z2f2 | 
[V:3] z2_B2 | 
[V:4] z2_B,,2 | 
[V:1] F2G2 | 
[V:2] d2_B2- | 
[V:3] A2G2 | 
[V:4] D,2_E,2 | 
[V:1] _B4 | 
[V:2] Bcd_e | 
[V:3] G4 | 
[V:4] G,4 | 
[V:1] A2G2- | 
[V:2] f2d2 | 
[V:3] c2_B2 | 
[V:4] F,2G,2 | 
[V:1] G2^F2 | 
[V:2] d4 | 
[V:3] A4 | 
[V:4] D,4 | 
[V:1] G4 | 
[V:2] _B4 | 
[V:3] G4 | 
[V:4] _E,4 | 
[V:1] G4 | 
[V:2] _e4 | 
[V:3] c4 | 
[V:4] C,4 | 
[V:1] c4 | 
[V:2] c2f2 | 
[V:3] A2F2 | 
[V:4] z4 | 
[V:1] _B3A/G/ | 
[V:2] d4 | 
[V:3] G4 | 
[V:4] z4 | 
[V:1] F2A2 | 
[V:2] c4- | 
[V:3] A3_B | 
[V:4] F,4 | 
[V:1] G2F2- | 
[V:2] c4 | 
[V:3] c2A2 | 
[V:4] C,2F,2 | 
[V:1] F2E2 | 
[V:2] c4- | 
[V:3] G4 | 
[V:4] C,4 | 
[V:1] F4 |]  
[V:2] c4 |]  
[V:3] F4 |]  
[V:4] F,4 |]  


